X: 1
T: Bicycle, The
Z: Lorna LaVerne <Muse1950:AOL.COM> irtrad-l 2000-12-12
N: ..., so here it is as it appears in Johnny O'Leary's book (and Brendan names
N: Johnny as his source).  I guess I'd better start learning it on my box now!
M: 12/8
L: 1/8
%Q: 160
R: slide
K: ADor
| B2 E  E2 F  B2 E  E2 F \
| B2 E  E2 F A3  F2 A  \
| BEE  E2 F  G2 E  E2 A \
| B2 c d2 B A3  F2 A |
| BEE  E2 F-FBE E2 A \
| BEE  E2 F A3  F2 A  \
| B2 E  E2 F  B2 E  E2 A \
| B2 c  d2 B A2 B/A/ F2 A |
| Bee  e2 d  B2 A F2 A\
| Bee  e2 f d3 B/c/BA \
| Bee  ede B2 d d2 B \
| A2 F D2 F A3 F2 A |
| B2 e  fed B2 A F2 A\
| Bee  e2 f d3 B/c/BA \
| Bee  ede B2 A d2 B \
| A2 F D2 F A3 F2 A |]
